assets/images/html+css.svg

<svg width="68" height="30" viewBox="0 0 68 30" fill="none" xmlns="http://www.w3.org/2000/svg">
<path d="M21.2003 5.88086L19.2689 27.5174L10.5872 29.9242L1.92939 27.5207L0 5.88086H21.2003Z" fill="#E44D26"/>
<path d="M10.6001 28.0845L17.6154 26.1396L19.2658 7.65015H10.6001V28.0845Z" fill="#F16529"/>
<path d="M6.84535 12.9584H10.5999V10.3043H3.94482L4.00831 11.0163L4.66067 18.3302H10.5999V15.6761H7.08793L6.84535 12.9584ZM7.44352 19.6573H4.77926L5.15106 23.8245L10.5877 25.3337L10.5999 25.3303V22.569L10.5883 22.5721L7.6325 21.774L7.44352 19.6573Z" fill="#EBEBEB"/>
<path d="M1.97217 0H3.32092V1.33255H4.55474V0H5.90358V4.03529H4.55483V2.68404H3.321V4.03529H1.97225L1.97217 0ZM7.67716 1.3382H6.48995V0H10.2141V1.3382H9.02616V4.03529H7.6774V1.3382H7.67716ZM10.8051 0H12.2115L13.0766 1.41789L13.9408 0H15.3478V4.03529H14.0045V2.03518L13.0766 3.46994H13.0533L12.1248 2.03518V4.03529H10.8051V0ZM16.019 0H17.3682V2.7015H19.2649V4.03529H16.0189V0H16.019Z" fill="black"/>
<path d="M10.5909 18.3302H13.8591L13.5509 21.7723L10.5908 22.5712V25.3324L16.0318 23.8245L16.0717 23.3761L16.6954 16.3888L16.7602 15.6761H10.5909V18.3302ZM10.5909 12.9519V12.9584H17.0017L17.0549 12.3619L17.1759 11.0163L17.2393 10.3043H10.5909V12.9519Z" fill="white"/>
<path d="M32.3242 14.2568C32.3242 14.2568 32.3242 13.0879 32.3242 10.75C32.3242 10.75 33.042 10.75 34.4775 10.75C34.4775 10.75 34.4775 11.9189 34.4775 14.2568C34.4775 14.2568 35.6289 14.2568 37.9316 14.2568C37.9316 14.2568 37.9316 14.9658 37.9316 16.3838C37.9316 16.3838 36.7803 16.3838 34.4775 16.3838C34.4775 16.3838 34.4775 17.5527 34.4775 19.8906C34.4775 19.8906 33.7598 19.8906 32.3242 19.8906C32.3242 19.8906 32.3242 18.7217 32.3242 16.3838C32.3242 16.3838 31.1699 16.3838 28.8613 16.3838C28.8613 16.3838 28.8613 15.6748 28.8613 14.2568C28.8613 14.2568 30.0156 14.2568 32.3242 14.2568Z" fill="#111111"/>
<path d="M65.4082 27.6574L56.708 30L48.0077 27.6574L46 5.90686H67.4161L65.4082 27.6574Z" fill="#2062AF"/>
<path d="M56.7085 7.66852V28.1315L56.7282 28.1369L63.7689 26.241L65.394 7.66852H56.7085Z" fill="#3C9CD7"/>
<path d="M51.7706 2.71118V1.41659H53.6594V0H50.354V4.00385H53.6594V2.71118H51.7706ZM57.0571 1.41659H58.3777V0H55.072V1.41659C55.5142 1.85885 55.7449 2.07053 56.3845 2.71016C56.0106 2.71016 55.072 2.7115 55.072 2.71143V4.00385H58.3777V2.71118L57.0571 1.41659ZM61.7424 1.41659H63.0628V0H59.757V1.41659C60.1993 1.85885 60.43 2.07053 61.0697 2.71016C60.6959 2.71016 59.757 2.7115 59.757 2.71143V4.00385H63.0629V2.71118L61.7424 1.41659Z" fill="black"/>
<path d="M56.7002 13.107L50.4731 15.7004L50.6796 18.2681L56.7002 15.6939L63.1044 12.9558L63.37 10.3292L56.7002 13.107Z" fill="white"/>
<path d="M50.4731 15.7004L50.6796 18.2681L56.7002 15.6939V13.1071L50.4731 15.7004Z" fill="url(#paint0_linear_2817_145)"/>
<path d="M63.3705 10.3292L56.7007 13.107V15.6939L63.105 12.9558L63.3705 10.3292Z" fill="url(#paint1_linear_2817_145)"/>
<path d="M50.4829 15.7004L50.6895 18.2681L59.9272 18.2975L59.7205 21.721L56.6808 22.5768L53.7587 21.839L53.5817 19.7141H50.8665L51.2207 23.8163L56.7103 25.4395L62.1702 23.8458L62.8785 15.7004H50.4829Z" fill="url(#paint2_linear_2817_145)"/>
<path opacity="0.05" d="M56.7002 15.7004H50.4731L50.6796 18.2681L56.7002 18.2873V15.7004ZM56.7002 22.5686L56.6707 22.5769L53.749 21.8391L53.5719 19.7141H50.8568L51.2109 23.8164L56.7002 25.4396V22.5686Z" fill="black"/>
<path d="M49.9126 10.3292H63.3702L63.1047 12.9558H50.2372L49.9126 10.3292Z" fill="url(#paint3_linear_2817_145)"/>
<path opacity="0.05" d="M56.7004 10.3292H49.9126L50.2372 12.9558H56.7004V10.3292Z" fill="black"/>
<defs>
<linearGradient id="paint0_linear_2817_145" x1="53.5867" y1="18.2682" x2="53.5867" y2="13.1071" gradientUnits="userSpaceOnUse">
<stop offset="0.387" stop-color="#D1D3D4" stop-opacity="0"/>
<stop offset="1" stop-color="#D1D3D4"/>
</linearGradient>
<linearGradient id="paint1_linear_2817_145" x1="60.0355" y1="15.694" x2="60.0355" y2="10.3293" gradientUnits="userSpaceOnUse">
<stop offset="0.387" stop-color="#D1D3D4" stop-opacity="0"/>
<stop offset="1" stop-color="#D1D3D4"/>
</linearGradient>
<linearGradient id="paint2_linear_2817_145" x1="50.4829" y1="20.57" x2="62.8784" y2="20.57" gradientUnits="userSpaceOnUse">
<stop stop-color="#E8E7E5"/>
<stop offset="1" stop-color="white"/>
</linearGradient>
<linearGradient id="paint3_linear_2817_145" x1="49.9126" y1="11.6425" x2="63.3702" y2="11.6425" gradientUnits="userSpaceOnUse">
<stop stop-color="#E8E7E5"/>
<stop offset="1" stop-color="white"/>
</linearGradient>
</defs>
</svg>

<svg width="68" height="30" fill="none" xmlns="http://www.w3.org/2000/svg"><path d="M21.2 5.88 19.27 27.518l-8.682 2.407-8.658-2.403L0 5.88h21.2Z" fill="#E44D26"/><path d="m10.6 28.084 7.015-1.944 1.65-18.49H10.6v20.434Z" fill="#F16529"/><path d="M6.845 12.958H10.6v-2.654H3.945l.063.712.653 7.314H10.6v-2.654H7.088l-.243-2.718Zm.599 6.7H4.779l.372 4.166 5.437 1.51.012-.004V22.57l-.012.003-2.955-.798-.19-2.117Z" fill="#EBEBEB"/><path d="M1.972 0h1.349v1.333h1.234V0h1.349v4.035h-1.35V2.684H3.322v1.351H1.972V0Zm5.705 1.338H6.49V0h3.724v1.338H9.026v2.697H7.677V1.338ZM10.805 0h1.406l.866 1.418L13.94 0h1.407v4.035h-1.344v-2l-.927 1.435h-.024l-.928-1.435v2h-1.32V0Zm5.214 0h1.35v2.701h1.896v1.334h-3.246V0Z" fill="#000"/><path d="M10.59 18.33h3.27l-.31 3.442-2.96.8v2.76l5.442-1.508.04-.448.623-6.987.065-.713h-6.17v2.654Zm0-5.378v.006h6.412l.053-.596.12-1.346.064-.712h-6.648v2.648Z" fill="#fff"/><path d="M32.324 14.257V10.75h2.154v3.507h3.454v2.127h-3.455v3.507h-2.153v-3.507h-3.463v-2.127h3.463Z" fill="#111"/><path d="M65.408 27.657 56.708 30l-8.7-2.343L46 5.907h21.416l-2.008 21.75Z" fill="#2062AF"/><path d="M56.709 7.669V28.13l.02.006 7.04-1.896 1.625-18.572h-8.686Z" fill="#3C9CD7"/><path d="M51.77 2.711V1.417h1.89V0h-3.306v4.004h3.305V2.71h-1.888Zm5.287-1.294h1.32V0h-3.305v1.417c.442.442.673.654 1.313 1.293l-1.313.001v1.293h3.306V2.71l-1.32-1.294Zm4.685 0h1.32V0h-3.305v1.417c.442.442.673.654 1.313 1.293l-1.313.001v1.293h3.306V2.71l-1.32-1.294Z" fill="#000"/><path d="M56.7 13.107 50.473 15.7l.207 2.568 6.02-2.574 6.404-2.738.266-2.627-6.67 2.778Z" fill="#fff"/><path d="m50.473 15.7.207 2.568 6.02-2.574v-2.587L50.473 15.7Z" fill="url(#a)"/><path d="m63.37 10.33-6.67 2.777v2.587l6.405-2.738.266-2.627Z" fill="url(#b)"/><path d="m50.483 15.7.207 2.568 9.237.03-.206 3.423-3.04.856-2.922-.738-.177-2.125h-2.715l.354 4.102 5.49 1.623 5.46-1.593.708-8.146H50.483Z" fill="url(#c)"/><path opacity=".05" d="M56.7 15.7h-6.227l.207 2.568 6.02.02V15.7Zm0 6.869-.03.008-2.921-.738-.177-2.125h-2.715l.354 4.102 5.49 1.624v-2.871Z" fill="#000"/><path d="M49.913 10.33H63.37l-.265 2.626H50.237l-.324-2.627Z" fill="url(#d)"/><path opacity=".05" d="M56.7 10.33h-6.787l.324 2.626H56.7v-2.627Z" fill="#000"/><defs><linearGradient id="a" x1="53.587" y1="18.268" x2="53.587" y2="13.107" gradientUnits="userSpaceOnUse"><stop offset=".387" stop-color="#D1D3D4" stop-opacity="0"/><stop offset="1" stop-color="#D1D3D4"/></linearGradient><linearGradient id="b" x1="60.035" y1="15.694" x2="60.035" y2="10.329" gradientUnits="userSpaceOnUse"><stop offset=".387" stop-color="#D1D3D4" stop-opacity="0"/><stop offset="1" stop-color="#D1D3D4"/></linearGradient><linearGradient id="c" x1="50.483" y1="20.57" x2="62.878" y2="20.57" gradientUnits="userSpaceOnUse"><stop stop-color="#E8E7E5"/><stop offset="1" stop-color="#fff"/></linearGradient><linearGradient id="d" x1="49.913" y1="11.643" x2="63.37" y2="11.643" gradientUnits="userSpaceOnUse"><stop stop-color="#E8E7E5"/><stop offset="1" stop-color="#fff"/></linearGradient></defs></svg>
